build/images/content/icons/icon-1.svg

<svg width="100" height="100" viewBox="0 0 100 100" fill="none" xmlns="http://www.w3.org/2000/svg">
<path d="M46.9273 82.4126H46.3773H46.0173C46.0173 82.1845 46.0173 81.9961 46.0173 81.8474C46.0173 81.6986 46.0173 81.5003 45.9573 81.2623L45.6873 78.6345C45.3573 79.2691 45.0273 79.9038 44.6873 80.5285C44.3473 81.1532 44.0973 81.7383 43.7773 82.4126H43.4273C43.1173 81.7581 42.8073 81.1136 42.4773 80.4293C42.1473 79.7451 41.8573 79.2195 41.5773 78.7138L41.3673 80.4293C41.3673 80.7268 41.2973 81.064 41.2673 81.421C41.2343 81.7273 41.2176 82.0351 41.2173 82.3432H40.8773H40.7273H40.5273L40.8073 80.6078L41.3373 76.7107C41.457 76.7227 41.5776 76.7227 41.6973 76.7107H41.8773H42.0673C42.3673 77.3652 42.6773 78.0197 42.9973 78.694C43.3173 79.3683 43.6573 79.9831 43.9973 80.5979C44.6673 79.3683 45.2973 78.0792 45.8973 76.7404H46.0773H46.2873C46.4104 76.7524 46.5343 76.7524 46.6573 76.7404L47.1373 80.707C47.1973 81.1929 47.2373 81.4805 47.2473 81.5895C47.2473 81.8474 47.3373 82.1151 47.4073 82.3928L46.9273 82.4126Z" fill="#393C4C"/>
<path d="M55.8774 78.4954C55.8522 78.4945 55.8277 78.4869 55.8065 78.4734C55.7854 78.4599 55.7682 78.441 55.757 78.4187C55.7457 78.3964 55.7407 78.3714 55.7426 78.3465C55.7444 78.3216 55.753 78.2977 55.7674 78.2772L57.3174 76.0855C57.3302 76.0671 57.3474 76.0521 57.3675 76.0417C57.3875 76.0313 57.4098 76.0259 57.4324 76.0259C57.455 76.0259 57.4772 76.0313 57.4972 76.0417C57.5173 76.0521 57.5345 76.0671 57.5474 76.0855L59.0974 78.2574C59.1122 78.2785 59.1209 78.3034 59.1223 78.3292C59.1237 78.3549 59.1179 78.3806 59.1054 78.4033C59.093 78.4259 59.0744 78.4447 59.0518 78.4575C59.0291 78.4702 59.0034 78.4765 58.9774 78.4755L55.8774 78.4954Z" fill="#393C4C"/>
<path d="M29.3192 76.0862H32.4192C32.4455 76.0874 32.4709 76.0954 32.4931 76.1094C32.5152 76.1233 32.5333 76.1429 32.5454 76.166C32.5576 76.189 32.5634 76.2149 32.5623 76.2409C32.5612 76.2669 32.5533 76.2922 32.5392 76.3142L30.9892 78.4359C30.9753 78.4543 30.9571 78.4693 30.9363 78.4797C30.9155 78.49 30.8925 78.4954 30.8692 78.4954C30.8459 78.4954 30.823 78.49 30.8021 78.4797C30.7813 78.4693 30.7632 78.4543 30.7492 78.4359L29.1892 76.2746C29.1833 76.2536 29.182 76.2316 29.1856 76.2101C29.1891 76.1886 29.1974 76.1682 29.2098 76.1502C29.2222 76.1323 29.2384 76.1172 29.2573 76.1062C29.2762 76.0951 29.2974 76.0883 29.3192 76.0862Z" fill="#393C4C"/>
<path d="M52.3773 11.7085H35.5873C31.3983 11.7216 27.3846 13.3775 24.4226 16.3149C21.4605 19.2522 19.7905 23.2324 19.7773 27.3864V72.7541C19.7773 73.2796 19.7773 73.7457 19.8573 74.301V77.8908C20.1173 86.6867 30.8573 93.7571 43.9973 93.7571C57.1373 93.7571 67.8673 86.6767 68.1373 77.8908V27.3864C68.1268 23.2401 66.4646 19.2659 63.5128 16.3294C60.5609 13.3929 56.5585 11.732 52.3773 11.7085V11.7085Z" stroke="#393C4C" stroke-width="2" stroke-miterlimit="10"/>
<path d="M63.6177 27.3169C63.619 26.2079 63.3998 25.1095 62.9728 24.0845C62.5457 23.0595 61.919 22.128 61.1287 21.3434C60.3383 20.5587 59.3998 19.9362 58.3666 19.5115C57.3335 19.0868 56.2261 18.8682 55.1077 18.8682H32.8577C31.7393 18.8682 30.6318 19.0868 29.5987 19.5115C28.5656 19.9362 27.627 20.5587 26.8366 21.3434C26.0463 22.128 25.4197 23.0595 24.9926 24.0845C24.5655 25.1095 24.3463 26.2079 24.3477 27.3169V70.7805C24.3477 80.6969 33.1377 88.6995 43.9877 88.6995C54.8377 88.6995 63.6177 80.6771 63.6177 70.7805V27.3169V27.3169Z" stroke="#393C4C" stroke-width="2" stroke-miterlimit="10"/>
<path d="M24.3477 25.5325H63.6177" stroke="#393C4C" stroke-width="2" stroke-miterlimit="10"/>
<path d="M24.3477 66.9927H63.6177" stroke="#393C4C" stroke-width="2" stroke-miterlimit="10"/>
<path d="M24.3477 72.863H63.6177" stroke="#393C4C" stroke-width="2" stroke-miterlimit="10"/>
<path d="M31.6992 83.6226L38.6992 72.863" stroke="#393C4C" stroke-width="2" stroke-miterlimit="10"/>
<path d="M56.2695 83.6226L49.2695 72.863" stroke="#393C4C" stroke-width="2" stroke-miterlimit="10"/>
<path d="M54.3378 12.0554C52.8078 14.4155 48.7478 16.1013 43.9878 16.1013C39.2278 16.1013 34.9278 14.3164 33.5078 11.8472" stroke="#393C4C" stroke-width="2" stroke-miterlimit="10"/>
<path d="M92.3183 17.7877C91.4483 16.9646 90.2483 15.378 90.2483 14.3268V11.9072H77.3083V14.3268C77.3083 15.378 76.1083 16.9646 75.2383 17.7877C74.3683 18.6108 73.2383 19.4735 73.2383 22.5476V86.7071C73.237 87.5427 73.4018 88.3703 73.7233 89.1427C74.0449 89.915 74.5168 90.6169 75.1122 91.2082C75.7075 91.7995 76.4146 92.2686 77.193 92.5887C77.9713 92.9088 78.8057 93.0735 79.6483 93.0735H87.9683C88.8109 93.0735 89.6452 92.9088 90.4236 92.5887C91.2019 92.2686 91.909 91.7995 92.5044 91.2082C93.0997 90.6169 93.5717 89.915 93.8932 89.1427C94.2148 88.3703 94.3796 87.5427 94.3783 86.7071V22.5377C94.3483 19.4735 93.1883 18.6207 92.3183 17.7877Z" stroke="#393C4C" stroke-width="2" stroke-linecap="round" stroke-linejoin="round"/>
<path d="M83.7795 69.8782C82.1193 69.8782 80.527 69.2241 79.353 68.06C78.1791 66.8958 77.5195 65.3168 77.5195 63.6705V37.3224C77.5195 35.6751 78.1787 34.0951 79.3524 32.9293C80.5261 31.7636 82.1184 31.1074 83.7795 31.1047V31.1047C85.4424 31.1047 87.0372 31.7598 88.2131 32.9258C89.3889 34.0919 90.0495 35.6734 90.0495 37.3224V63.6705C90.0469 65.3178 89.3851 66.8967 88.2096 68.0606C87.034 69.2245 85.4407 69.8782 83.7795 69.8782V69.8782Z" stroke="#393C4C" stroke-width="2" stroke-linecap="round" stroke-linejoin="round"/>
<path d="M94.357 77.5735H73.207V85.2388H94.357V77.5735Z" stroke="#393C4C" stroke-width="2" stroke-linecap="round" stroke-linejoin="round"/>
<path d="M83.7788 83.0779C83.3544 83.0454 82.9579 82.8552 82.6687 82.5454C82.3794 82.2355 82.2188 81.8288 82.2188 81.4065C82.2188 80.9842 82.3794 80.5775 82.6687 80.2676C82.9579 79.9577 83.3544 79.7676 83.7788 79.7351V79.7351C84.2033 79.7676 84.5998 79.9577 84.889 80.2676C85.1783 80.5775 85.3389 80.9842 85.3389 81.4065C85.3389 81.8288 85.1783 82.2355 84.889 82.5454C84.5998 82.8552 84.2033 83.0454 83.7788 83.0779Z" stroke="#393C4C" stroke-linejoin="round"/>
<path d="M36.7383 51.355H47.3083" stroke="#393C4C" stroke-width="2" stroke-miterlimit="10" stroke-linecap="round"/>
<path d="M41.32 69.8865C41.32 60.2146 33.4133 52.374 23.66 52.374C13.9066 52.374 6 60.2146 6 69.8865C6 79.5583 13.9066 87.3989 23.66 87.3989C33.4134 87.3989 41.32 79.5583 41.32 69.8865Z" fill="white" stroke="#F91A2B" stroke-width="2" stroke-miterlimit="10"/>
<path d="M29.4115 70.0317L21.1807 75.1166C21.1223 75.1523 21.0553 75.172 20.9866 75.1737C20.918 75.1754 20.8501 75.159 20.7899 75.1263C20.7298 75.0935 20.6796 75.0455 20.6444 74.9872C20.6092 74.9289 20.5904 74.8624 20.5898 74.7946V64.6449C20.5904 64.577 20.6092 64.5105 20.6444 64.4523C20.6796 64.394 20.7298 64.346 20.7899 64.3132C20.8501 64.2804 20.918 64.264 20.9866 64.2657C21.0553 64.2674 21.1223 64.2872 21.1807 64.3229L29.4115 69.3877C29.4662 69.4223 29.5112 69.4699 29.5423 69.5261C29.5735 69.5824 29.5898 69.6455 29.5898 69.7097C29.5898 69.7738 29.5735 69.8369 29.5423 69.8932C29.5112 69.9495 29.4662 69.9971 29.4115 70.0317Z" fill="#F91A2B" stroke="#F91A2B" stroke-width="2" stroke-miterlimit="10"/>
<path d="M42.8578 45.147H36.0078L37.9178 43.1637H41.2478L42.8578 45.147ZM36.2778 37.2931L36.6678 32.0869L38.2678 34.0702L38.0678 36.7675L36.8678 38.0368L36.2778 37.2931ZM43.8878 31.7002L41.9678 33.6835H38.6478L37.0378 31.7002H43.8878ZM41.8878 37.422L42.6978 38.4137L41.6978 39.4053H37.9878L37.1878 38.4038L38.1878 37.4121L41.8878 37.422ZM43.5778 39.5541L43.1878 44.7701L41.5878 42.7868L41.7878 40.0796L42.9878 38.8302L43.5778 39.5541Z" fill="#393C4C"/>
<path d="M44.9766 45.1465L45.1266 43.1633H46.8866L46.7366 45.1465H44.9766Z" fill="#393C4C"/>
<path d="M50.6569 40.0598L50.4569 42.767L48.5469 44.7503L48.9269 39.5442L49.6569 38.8004L50.6569 40.0598ZM55.7069 45.147H48.8569L50.7669 43.1637H54.0969L55.7069 45.147ZM49.1169 37.2931L49.5169 32.0869L51.1369 34.0702L50.9269 36.7675L49.7169 38.0368L49.1169 37.2931ZM56.7369 31.7002L54.8269 33.6835H51.4969L49.8869 31.7002H56.7369ZM54.7369 37.422L55.5469 38.4137L54.5469 39.4053H50.8369L50.0369 38.4137L50.9869 37.422H54.7369ZM56.4169 39.5541L56.0369 44.7701L54.4269 42.7868L54.6269 40.0796L55.8269 38.8302L56.4169 39.5541ZM54.8769 36.7874L55.0869 34.0405L57.0069 32.0572L56.6069 37.2733L55.8769 38.0368L54.8769 36.7874Z" fill="#393C4C"/>
<path d="M87.3177 46.753V50.2446L86.3177 49.2527V47.5664L87.3177 46.753ZM83.2477 50.1058L80.5477 49.9074L81.5477 49.094L82.9477 49.1932L83.6077 49.8082L83.2477 50.1058ZM80.3477 46.2273L81.3477 47.2192V48.9154L80.3477 49.7387V46.2273ZM83.3477 47.2192L83.8577 46.8026L84.3777 47.2887V49.213L83.8577 49.6197L83.3477 49.1337V47.2192ZM84.4477 46.3463L87.1477 46.5447L86.1477 47.368L84.6777 47.3283L84.0277 46.7233L84.4477 46.3463Z" fill="#393C4C"/>
<path d="M87.3164 45.6729L86.3164 45.5935V44.6904L87.3164 44.7698V45.6729Z" fill="#393C4C"/>
<path d="M84.6777 42.7665L86.0877 42.8756L87.0877 43.8672L84.3877 43.6689L83.9977 43.302L84.6777 42.7665ZM87.3177 40.1983V43.6887L86.3177 42.6971V41.0114L87.3177 40.1983ZM83.2477 43.5499L80.5477 43.3516L81.5477 42.5285L82.9477 42.6277L83.6077 43.2524L83.2477 43.5499ZM80.3477 39.6728L81.3477 40.6644V42.3699L80.3477 43.1929V39.6728ZM83.3477 40.6644L83.8577 40.2479L84.3777 40.7338V42.6575L83.8577 43.064L83.3477 42.5781V40.6644ZM84.4477 39.8017L87.1477 39.9901L86.1477 40.823L84.7377 40.7139L84.0877 40.0992L84.4477 39.8017ZM83.0177 40.585L81.5877 40.476L80.5877 39.4844L83.2977 39.6827L83.6977 40.0595L83.0177 40.585Z" fill="#393C4C"/>
</svg>

<svg width="100" height="100" fill="none" xmlns="http://www.w3.org/2000/svg"><path d="M46.927 82.413h-.91v-.566c0-.148 0-.347-.06-.585l-.27-2.627c-.33.634-.66 1.269-1 1.893-.34.625-.59 1.21-.91 1.885h-.35c-.31-.655-.62-1.3-.95-1.984-.33-.684-.62-1.21-.9-1.715l-.21 1.715c0 .298-.07.635-.1.992-.033.306-.05.614-.05.922h-.69l.28-1.735.53-3.897c.12.012.24.012.36 0h.37c.3.654.61 1.309.93 1.983.32.674.66 1.29 1 1.904.67-1.23 1.3-2.519 1.9-3.858h.39c.123.012.247.012.37 0l.48 3.967c.06.486.1.774.11.883 0 .257.09.525.16.803l-.48.02zm8.95-3.918a.141.141 0 01-.12-.076.137.137 0 01.01-.142l1.55-2.192a.138.138 0 01.115-.06.14.14 0 01.115.06l1.55 2.172a.138.138 0 01-.12.218l-3.1.02zM29.32 76.086h3.1a.151.151 0 01.125.08.147.147 0 01-.006.148l-1.55 2.122a.15.15 0 01-.24 0l-1.56-2.161a.148.148 0 01.13-.189z" fill="#393C4C"/><path d="M52.377 11.709h-16.79a15.927 15.927 0 00-11.164 4.606 15.662 15.662 0 00-4.646 11.071v45.368c0 .526 0 .992.08 1.547v3.59c.26 8.796 11 15.866 24.14 15.866s23.87-7.08 24.14-15.866V27.386a15.652 15.652 0 00-4.624-11.057 15.917 15.917 0 00-11.136-4.62v0z" stroke="#393C4C" stroke-width="2" stroke-miterlimit="10"/><path d="M63.618 27.317a8.38 8.38 0 00-.645-3.233 8.435 8.435 0 00-1.844-2.74 8.514 8.514 0 00-2.762-1.832 8.572 8.572 0 00-3.26-.644h-22.25a8.573 8.573 0 00-3.258.644 8.515 8.515 0 00-2.762 1.831 8.434 8.434 0 00-1.844 2.741 8.375 8.375 0 00-.645 3.233V70.78c0 9.917 8.79 17.92 19.64 17.92 10.85 0 19.63-8.023 19.63-17.92V27.318v0zm-39.27-1.785h39.27m-39.27 41.461h39.27m-39.27 5.87h39.27M31.7 83.623l7-10.76m17.57 10.76l-7-10.76m5.068-60.808c-1.53 2.36-5.59 4.046-10.35 4.046s-9.06-1.785-10.48-4.254" stroke="#393C4C" stroke-width="2" stroke-miterlimit="10"/><path d="M92.318 17.788c-.87-.823-2.07-2.41-2.07-3.461v-2.42h-12.94v2.42c0 1.051-1.2 2.638-2.07 3.46-.87.824-2 1.687-2 4.76v64.16a6.312 6.312 0 00.485 2.436 6.354 6.354 0 001.39 2.065 6.413 6.413 0 002.08 1.38c.778.32 1.613.486 2.455.486h8.32c.843 0 1.677-.165 2.456-.485a6.416 6.416 0 002.08-1.38 6.353 6.353 0 001.39-2.066 6.31 6.31 0 00.484-2.436v-64.17c-.03-3.063-1.19-3.916-2.06-4.75z" stroke="#393C4C" stroke-width="2" stroke-linecap="round" stroke-linejoin="round"/><path d="M83.78 69.878a6.287 6.287 0 01-4.427-1.818 6.182 6.182 0 01-1.834-4.39V37.322c0-1.647.66-3.227 1.833-4.393a6.297 6.297 0 014.427-1.824v0c1.663 0 3.258.655 4.434 1.82a6.192 6.192 0 011.837 4.397V63.67a6.192 6.192 0 01-1.84 4.39 6.297 6.297 0 01-4.43 1.818v0zm10.577 7.695h-21.15v7.666h21.15v-7.666z" stroke="#393C4C" stroke-width="2" stroke-linecap="round" stroke-linejoin="round"/><path d="M83.779 83.078a1.696 1.696 0 01-1.11-.533 1.669 1.669 0 010-2.277c.289-.31.685-.5 1.11-.533v0a1.7 1.7 0 011.11.533 1.669 1.669 0 010 2.277 1.7 1.7 0 01-1.11.533z" stroke="#393C4C" stroke-linejoin="round"/><path d="M36.738 51.355h10.57" stroke="#393C4C" stroke-width="2" stroke-miterlimit="10" stroke-linecap="round"/><path d="M41.32 69.886c0-9.671-7.907-17.512-17.66-17.512S6 60.214 6 69.886 13.907 87.4 23.66 87.4s17.66-7.84 17.66-17.513z" fill="#fff" stroke="#F91A2B" stroke-width="2" stroke-miterlimit="10"/><path d="M29.412 70.032l-8.231 5.085a.39.39 0 01-.537-.13.379.379 0 01-.054-.192v-10.15a.378.378 0 01.2-.332.391.391 0 01.39.01l8.232 5.065a.384.384 0 01.178.322.378.378 0 01-.178.322z" fill="#F91A2B" stroke="#F91A2B" stroke-width="2" stroke-miterlimit="10"/><path d="M42.858 45.147h-6.85l1.91-1.983h3.33l1.61 1.983zm-6.58-7.854l.39-5.206 1.6 1.983-.2 2.697-1.2 1.27-.59-.744zm7.61-5.593l-1.92 1.984h-3.32l-1.61-1.984h6.85zm-2 5.722l.81.992-1 .991h-3.71l-.8-1.001 1-.992 3.7.01zm1.69 2.132l-.39 5.216-1.6-1.983.2-2.707 1.2-1.25.59.724zm1.399 5.593l.15-1.984h1.76l-.15 1.984h-1.76zm5.68-5.087l-.2 2.707-1.91 1.983.38-5.206.73-.744 1 1.26zm5.05 5.087h-6.85l1.91-1.983h3.33l1.61 1.983zm-6.59-7.854l.4-5.206 1.62 1.983-.21 2.697-1.21 1.27-.6-.744zm7.62-5.593l-1.91 1.984h-3.33l-1.61-1.984h6.85zm-2 5.722l.81.992-1 .991h-3.71l-.8-.991.95-.992h3.75zm1.68 2.132l-.38 5.216-1.61-1.983.2-2.707 1.2-1.25.59.724zm-1.54-2.767l.21-2.746 1.92-1.984-.4 5.216-.73.764-1-1.25zm32.441 9.966v3.492l-1-.992v-1.687l1-.813zm-4.07 3.353l-2.7-.199 1-.813 1.4.1.66.614-.36.298zm-2.9-3.879l1 .992v1.696l-1 .824v-3.512zm3 .992l.51-.416.52.486v1.924l-.52.407-.51-.486v-1.915zm1.1-.873l2.7.199-1 .823-1.47-.04-.65-.605.42-.377zm2.868-.673l-1-.08v-.903l1 .08v.903zm-2.638-2.906l1.41.109 1 .991-2.7-.198-.39-.367.68-.535zm2.64-2.569v3.49l-1-.99V41.01l1-.813zm-4.07 3.352l-2.7-.198 1-.823 1.4.099.66.624-.36.298zm-2.9-3.877l1 .991v1.706l-1 .823v-3.52zm3 .991l.51-.416.52.486v1.923l-.52.407-.51-.486v-1.914zm1.1-.862l2.7.188-1 .833-1.41-.11-.65-.614.36-.297zm-1.43.783l-1.43-.109-1-.992 2.71.199.4.377-.68.525z" fill="#393C4C"/></svg>
